X: 1
T: A Great and Mighty Wonder
C: Words: Germanus of Constantinople (634-734).  Translated by John Mason Neale, 1862. 
C: Music: 'Es Ist Ein Ros Entsprungen (Rhythmic)' German from Köln, 1599.  Setting: Michael Praetorius, 1609.
C: copyright: public domain.  This score is a part of the Open Hymnal Project, 2010 Revision.
S: Music source: The English Hymnal, 1906.  Hymn 19
M: none % time signature
L: 1/4 % default length
%%staves (S1V1 S1V2) | (S2V1 S2V2) 
V: S1V1 clef=treble 
%%MIDI beat 127 125 110 1
V: S1V2 
%%MIDI beat 127 125 110 1
V: S2V1 clef=bass 
%%MIDI beat 127 125 110 1
V: S2V2 
%%MIDI beat 127 125 110 1
K: F % key signature
%
%%MIDI program 1 0 % Piano 1
%%MIDI program 2 0 % Piano 1
%%MIDI program 3 0 % Piano 1
%%MIDI program 4 0 % Piano 1
%
% 1
[V: S1V1] [Q:1/4=100] c2 | c c d c | c2 A2 B2 | A G2 F2 E | F3
w: 1.~A great and might- y won- der, a full and ho- ly cure: 
w: 2.~The Word be- comes in- car- nate and yet re- mains on high, 
w: 3.~While thus they sing your Mon- arch, those bright an- gel- ic bands, 
w: 4.~Since all He comes to ran- som, by all be He a- dored, 
w: 5.~And id- ol forms shall per- ish, and er- ror shall de- cay, 
[V: S1V2]  A2 | A F F F | E2 D2 D2 | C2 D A, C2 | C3
[V: S2V1]  C2 | C A, B, A, | G,2 F,2 F,2 | A, C (B, A,2) G, | A,3
[V: S2V2]  F,2 | F, F, B, F, | C,2 D,2 B,,2 | F, E, D,2 C,2 | F,3
% 5
[V: S1V1]  c2 | c c d c | c2 A2 B2 | A G2 F2 E | F3
w: The vir- gin bears the In- fant with vir- gin hon- or pure! 
w: And cher- u- bim sing an- thems to shep- herds from the sky. 
w: Re- joice, ye vales and moun- tains, ye oc- eans, clap your hands. 
w: The In- fant born in Beth- l'em, the Sa- vior and the Lord. 
w: And Christ shall wield His scep- ter, our Lord and God for aye. 
[V: S1V2]  A2 | A F F F | E2 D2 D2 | C2 D A, C2 | C3
[V: S2V1]  C2 | C A, B, A, | G,2 F,2 F,2 | A, C (B, A,2) G, | A,3
[V: S2V2]  F,2 | F, F, B, F, | C,2 D,2 B,,2 | F, E, D,2 C,2 | F,3
% 9
[V: S1V1]  A | G E F D | C3 !sintro!c | c c d c | c2 A2 B2 | A G2 F2 E | F3 !eintro!|]
w: Re- peat the hymn a- gain: "To God on high be glo- ry And peace on earth to men!"
[V: S1V2]  F | D C C =B, | C3 E | G F F F | E2 D2 D2 | F (D E) F C2 | C3 |]
[V: S2V1]  C | B, A, A, G, | E,3 G, | G, A, B, A, | G,2 ^F,2 G,2 | C B, A,2 G,2 | A,3 |]
[V: S2V2]  F, | G, A, F, G, | C,3 C, | E, F, B,, F, | C,2 D,2 G,,2 | A,, B,, C,2 C,2 | [F,,3F,3] |]
